X: 3816
T: Black Cat, The
R: jig
M: 6/8
K: Dminor
|:d2A DEF|ABA E2F|~G3 GFE|A,^CE GFE|
DdA DEF|ABA E2F|~G3 GFE|GFE D2A:|
|:d^cd fed|e^cA A^ce|~g3 gfe|gba gfe|
d2e fed|ea^g a3|A^ce A^ce|gfe d2A:|

